!!!COM: Schubert, Franz
!!!CNT: Deutscher
!!!TXO: Deutsch
!!!LYR: C. Gottfried v. Leitner
!!!OTL: "Drang in die Ferne"
!!!OPS: Op. 71
!!!ODT: 1823/
!!NB: Vocal melody only encoded.
!!NB: Original key: a minor
**kern	**silbe
*clefG2	*
*k[b-e-a-d-]	*
*M9/8	*
*MM[Etwas geschwind]	*
=4	=4
{8f	{Va-
8c	-ter,
8f	du
4a-	glaubst
8g	es
4.f}	nicht,}
=5	=5
{8a-	{wie's
8f	mir
8a-	zum
4cc	Her-
8b-	-zen
4.a-}	spricht,}
=6	=6
{8b-	{wenn
8cc	ich
8b-	die
4dd-	Wol-
8cc	-ken
4.b-}	seh'}
=7	=7
{8a-	{o-
8g	-der
8a-	am
4cc	Stro-
8b-	-me
4.a-}	steh',}
=8	=8
{8g	{Va-
8a-	-ter,
8g	du
4b-	glaubst
8a-	es
4.g}	nicht,}
=9	=9
{8f	{wie's
8e-	mir
8f	zum
4a-	Her-
8g	-zen
4.f}	spricht.}
=10	=10
{8a-	{Wol-
8g	-ken-
8a-	-gold,
4b-	Wel-
8g	-len-
4.a-}	gru2n}
=11	=11
{8cc	{zie-
8b-	-hen
8cc	so
4dd-	leicht
8b-	da-
4.cc}	-hin,}
=12	=12
{8cc	{wei-
8b-	-len
8cc	im
4ee-	Son-
8cc	-nen-
4.a-}	-licht,}
=13	=13
{8a-	{a-
8g	-ber
8a-	bei
[4.cc	Blu-
4cc]	|
8b-	-men
=14	=14
4g}	nicht,}
8r	.
4r	.
8r	.
4r	.
8r	.
=15	=15
{8a-	{zo2-
8g	-gern
8a-	und
4b-	ra-
8g	-sten
4.a-}	nie,}
=16	=16
{8cc	{ei-
8b-	-len
8cc	als
4dd-	wu2ss-
8b-	-ten
4.cc}	sie,}
=17	=17
{8cc	{fer-
8b-	-ne
8cc	und
4ee-	un-
8cc	-ge-
4.cc}	-kannt}
=18	=18
{8an	{ir-
8b-	-gend
8a	ein
[4.cc	scho2n'-
4cc]	|
8en	-res
=19	=19
4.f}	Land.}
4r	.
8r	.
4r	.
8r	.
=20	=20
{8f	{Ach!
8c	con
8f	Ge-
4a-	-wo2lk
8g	und
4.a-}	Flut}
=21	=21
{8a-	{had
8f	auch
8a-	mein
4cc	wil-
8b-	-des
4.a-}	Blut}
=22	=22
{8b-	{heim-
8cc	-lich
8b-	ge-
4dd-	-erbt
8cc	den
4.b-}	Drang,}
=23	=23
{8a-	{stu2r-
8b-	-met
8a-	die
4cc	Welt
8b-	ent-
4.a-}	-lang,}
=24	=24
{8g	{heim-
8a-	-lich
8g	ge-
4b-	-erbt
8a-	den
4.g}	Drang,}
=25	=25
{8f	{stu2r-
8e-	-met
8f	die
4a-	Welt
8g	ent-
4.f}	-lang!}
=26	=26
{8f	{Va-
8d-	-ter-
8f	-lands
4b-	Fel-
8f	-sen-
4.f}	-tal}
=27	=27
{8cc	{wird
8an	mir
8g-	zu
4f	eng,
8a	zu
4.cc}	schmal;}
=28	=28
{8b-	{denn
8f	mei-
8b-	-ner
4dd-	Sehn-
8cc	-sicht
4.b-}	Traum}
=29	=29
{8ee-	{fin-
8cc	-det
8b--	dar-
4a-	-in
8cc	nicht
4.ee-}	Raum.}
=30	=30
{8ee-	{Lasst
8dd-	micht!
8dd-	ich
8dd-	muss,
8cc	|
8cc	ich
8cc	muss
8b-}	|}
8r	.
=31	=31
{2.a-	{for-
b-q	|
a-q	|
8g-	|
8f	-dern
8e-	den
=32	=32
[4.d-	Schei-
4d-]	|
8f	|
8e-	|
8b-	|
8a-	-de-
=33	=33
4f}	-kuss}
8r	.
{4.cc-	{for-
8b-	|
8a-	-dern
8g-	den
=34	=34
[4.f	Schei-
4f]	|
8d-	|
8e-	|
8b-	|
8a-	-de-
=35	=35
4d-}	-kuss}
8r	.
4r	.
8r	.
{8.b--	{Va-
16cc-	-ter
8b--	und
=36	=36
4a-	Mut-
8dd-	-ter
4.a-}	mein!}
{8b--	{mu2s-
8a-	-set
8g-	nicht
=37	=37
4f	bo2-
8dd-	-se
4.a-}	sein,}
{8.cc-	{Va-
16dd-	-ter
8cc-	und
=38	=38
4b-	Mut-
8ee-	-ter
4.b-	mein!
8cc-	mu2s-
8b-	-set
8a-	nicht
=39	=39
4g	bo2-
8ee-	-se
2.b-}	sein:}
=40	=40
{8a-	{Hab'
8g	euch
8a-	ja
4b-	herz-
8g	-lich
4.a-}	lieb,}
=41	=41
{8cc	{a-
8b-	-ber
8cc	ein
4dd-	wil-
8b-	-der
4.cc}	Trieb}
=42	=42
{8cc	{jagt
8b-	mich
8cc	wald-
4ee-	-ein,
8cc	wald-
4.a-}	-aus}
=43	=43
{8a-	{weit
8g	von
8a-	dem
[4.cc	Va-
4cc]	|
8b-	-ter-
=44	=44
4.g}	-haus.}
8r	.
8r	.
8r	.
8r	.
8r	.
8r	.
=45	=45
{8a-	{Sorgt
8g	nicht,
8a-	durch
4b-	wel-
8g	-ches
4.a-}	Land}
=46	=46
{8cc	{ein-
8b-	-sam
8cc	mein
4dd-	Weg
8b-	sich
4.cc}	wand,}
=47	=47
{8cc	{Mon-
8b-	-den-
8cc	und
4ee-	Ster-
8cc	-nen-
4.cc}	-schein}
=48	=48
{8an	{leuch-
8b-	-tet
8a	auch
[4.cc	dort
4cc]	|
8en	hin-
=49	=49
*k[b-]	*
4f}	-ein.}
8r	.
8r	.
8r	.
8r	.
8r	.
8r	.
8r	.
=50	=50
{8.b-	{U2-
16b-	-ber-
8a	-all
8g	wo2lbt's
8b-	|
8a	Ge-
4.g}	-fild}
=51	=51
{8.a	{sich
16a	den
8g	a-
8f	-zur-
8a	|
8g	-nen
4.f}	Schild,}
=52	=52
{8dd	{den
8dd	um
8cc	die
8b-	gan-
8dd	|
8cc	-ze
4.b-}	Welt}
=53	=53
{8cc	{schir-
8cc	-mend
8b-	der
8a	Scho2p-
8cc	|
8b-	-fer
4.a}	ha2lt,}
=54	=54
{8bn	{den
8b	um
8b	die
4b	gan-
8b	-ze
4b	Went
8b	der
=55	=55
[2.cc	Scho2p-
4cc]	|
8c	-fer
=56	=56
2.c}	ha2lt.}
8r	.
8r	.
8r	.
=57	=57
{4.g	{Ach!
4r	.
8r	.
4g	und
8g	wenn
=58	=58
b-q	nim-
4a-	|
8a-	-mer-
4.a-}	-mehr}
8r	.
8r	.
8r	.
=59	=59
{4.g	{ich
4r	.
8r	.
4cc	zu
8g	euch
=60	=60
b-q	wie-
4a-	|
8a-	-derk-
4.a-}	-ehr',}
8r	.
8r	.
8r	.
=61	=61
{4.a-	{Lei-
4.g	-ben!
4r	.
8g	so
=62	=62
2.g}	denkt:}
4r	.
{8g	{er
=63	=63
8f#	fand
[4cc	|
4.cc]	|
ccq	glu2ck-
8b-	|
8a	-lich
8g	das
=64	=64
[4.f	scho2n-
4f]	|
8a	|
8g	|
8dd	|
8cc	-re
=65	=65
2.a}	Land,}
4r	.
{8g	{er
=66	=66
8f#	fand
[4cc	|
4.cc]	|
ccq	glu2ck-
8b-	|
8a	-lich
8g	das
=67	=67
[4.f	scho2n-
4f]	|
8a	|
8g	|
8dd	|
8cc	-re
=68	=68
4.f}	Land,}
4r	.
8r	.
{4.a	{er
=69	=69
[4.a	fand
8a]	|
8cc	|
8ff	das
8cc	scho2n-
8b-	|
8g	-re
=70	=70
4.cc	Land,
4.a}	|}
{4.a	{er
=71	=71
[4.a	fand
8a]	|
8cc	|
8ff	das
8cc	scho2n-
8b-	|
8g	-re
=72	=72
2.f}	Land.}
8r	.
8r	.
8r	.
==	==
*-	*-
